X:1
T:Caledonian Hunt's Delight, The
M:6/8
L:1/8
R:Air
S:Gow - Second Collection of Niel Gow's Reels (1788)
Z:AK/Fiddler's Companion
K:D
A,|:D3 E3{DE}|F>GF {F}EDE|{DE}F>ED DB,A,|"tr"A,>B,D E>GF/E/|D3 "tr"E3|
F>GF {F}EDE|{DE}F>ED DB,A,|"tr"A,B,D D3::A2"tr"B AFD|A2"tr"B (AF).D|
(AF).D (AF).D|[G,DB>]AF E>G/F/E/|D3 "tr"E3{DE}|F>GF {F}EDE|{DE}F>ED DB,A,|"tr"A,B,D D3:|

